src/icons/hicolor/scalable/apps/yast-ldap-kerberos.svg

<?xml version="1.0" encoding="UTF-8"?>
<svg version="1.0" viewBox="0 0 128 128" xmlns="http://www.w3.org/2000/svg" xmlns:xlink="http://www.w3.org/1999/xlink">
<path d="m32 92c-2.216 0-4 1.9822-4 4.4444v11.111c0 2.4622 1.784 4.4444 4 4.4444h64c2.216 0 4-1.9822 4-4.4444v-11.111c0-2.4622-1.784-4.4444-4-4.4444z" fill="#5e5c64" />
<path d="m32 88c-2.216 0-4 1.9822-4 4.4444v11.111c0 2.4622 1.784 4.4444 4 4.4444h64c2.216 0 4-1.9822 4-4.4444v-11.111c0-2.4622-1.784-4.4444-4-4.4444z" fill="#9a9996" />
<path d="m12 16c-2.216 0-4 1.8297-4 4.1026v71.794c0 2.2728 1.784 4.1026 4 4.1026h104c2.216 0 4-1.8297 4-4.1026v-71.794c0-2.2728-1.784-4.1026-4-4.1026z" fill="#5e5c64" />
<path d="m12 12c-2.216 0-4 1.784-4 4v72c0 2.216 1.784 4 4 4h104c2.216 0 4-1.784 4-4v-72c0-2.216-1.784-4-4-4z" fill="#9a9996" />
<rect x="12" y="16" width="104" height="72" ry="0" fill="#3d3846" />
<rect x="16" y="20" width="96" height="64" ry="0" fill="#3584e4" />
<rect x="44" y="36" width="40" height="32" ry="0" fill="#241f31"/>
<rect x="52" y="44" width="24" height="4" fill="#f6f5f4"/>
<rect x="68" y="60" width="8" height="4" fill="#33d17a"/>
<rect x="52" y="60" width="4" height="4" fill="#e01b24"/>
<path d="m16 20h72l-16 64h-56z" fill="#fff" opacity=".2" />
<rect x="52" y="52" width="24" height="4" fill="#fff"/>
</svg>

<?xml version="1.0" encoding="UTF-8" standalone="no"?>
<svg
   xmlns:dc="http://purl.org/dc/elements/1.1/"
   xmlns:cc="http://creativecommons.org/ns#"
   xmlns:rdf="http://www.w3.org/1999/02/22-rdf-syntax-ns#"
   xmlns:svg="http://www.w3.org/2000/svg"
   xmlns="http://www.w3.org/2000/svg"
   xmlns:xlink="http://www.w3.org/1999/xlink"
   width="128"
   height="128"
   id="svg11300"
   version="1.0"
   style="display:inline;enable-background:new"
   viewBox="0 0 128 128">
  <title
     id="title4162">Adwaita Icon Template</title>
  <defs
     id="defs3">
    <linearGradient
       id="linearGradient1814">
      <stop
         style="stop-color:#e5a50a;stop-opacity:1;"
         offset="0"
         id="stop1810" />
      <stop
         id="stop1822"
         offset="0.025"
         style="stop-color:#f6d32d;stop-opacity:1" />
      <stop
         style="stop-color:#e5a50a;stop-opacity:1"
         offset="0.05"
         id="stop1824" />
      <stop
         id="stop1820"
         offset="0.94999999"
         style="stop-color:#e5a50a;stop-opacity:1" />
      <stop
         id="stop1818"
         offset="0.97500002"
         style="stop-color:#f6d32d;stop-opacity:1" />
      <stop
         style="stop-color:#e5a50a;stop-opacity:1"
         offset="1"
         id="stop1812" />
    </linearGradient>
    <linearGradient
       id="linearGradient1804">
      <stop
         style="stop-color:#f5c211;stop-opacity:1"
         offset="0"
         id="stop1800" />
      <stop
         style="stop-color:#f6d32d;stop-opacity:1"
         offset="1"
         id="stop1802" />
    </linearGradient>
    <linearGradient
       id="linearGradient1678">
      <stop
         style="stop-color:#deddda;stop-opacity:1;"
         offset="0"
         id="stop1674" />
      <stop
         id="stop1682"
         offset="0.5"
         style="stop-color:#c0bfbc;stop-opacity:1" />
      <stop
         style="stop-color:#f6f5f4;stop-opacity:1"
         offset="0.75"
         id="stop1698" />
      <stop
         style="stop-color:#deddda;stop-opacity:1"
         offset="1"
         id="stop1676" />
    </linearGradient>
    <linearGradient
       id="linearGradient1502">
      <stop
         style="stop-color:#c0bfbc;stop-opacity:1"
         offset="0"
         id="stop1498" />
      <stop
         style="stop-color:#d6d5d1;stop-opacity:1"
         offset="1"
         id="stop1500" />
    </linearGradient>
    <linearGradient
       id="linearGradient1494">
      <stop
         style="stop-color:#f6f5f4;stop-opacity:1"
         offset="0"
         id="stop1490" />
      <stop
         style="stop-color:#deddda;stop-opacity:1"
         offset="1"
         id="stop1492" />
    </linearGradient>
    <linearGradient
       xlink:href="#linearGradient1494"
       id="linearGradient1496"
       x1="96"
       y1="48"
       x2="96"
       y2="80"
       gradientUnits="userSpaceOnUse" />
    <linearGradient
       xlink:href="#linearGradient1502"
       id="linearGradient1504"
       x1="14.000004"
       y1="239"
       x2="126"
       y2="239"
       gradientUnits="userSpaceOnUse" />
    <linearGradient
       gradientTransform="translate(-6,-1)"
       xlink:href="#linearGradient1494"
       id="linearGradient1488"
       x1="94"
       y1="236"
       x2="94"
       y2="232"
       gradientUnits="userSpaceOnUse" />
    <linearGradient
       gradientTransform="translate(-6,-1)"
       xlink:href="#linearGradient1494"
       id="linearGradient1496-5"
       x1="96"
       y1="48"
       x2="96"
       y2="80"
       gradientUnits="userSpaceOnUse" />
    <linearGradient
       gradientTransform="translate(-6,-1)"
       xlink:href="#linearGradient1494"
       id="linearGradient1520"
       x1="66"
       y1="224"
       x2="66"
       y2="228"
       gradientUnits="userSpaceOnUse" />
    <linearGradient
       gradientTransform="translate(-6,-1)"
       xlink:href="#linearGradient1534"
       id="linearGradient1528"
       x1="76"
       y1="242"
       x2="76"
       y2="246"
       gradientUnits="userSpaceOnUse" />
    <linearGradient
       id="linearGradient1534">
      <stop
         id="stop1530"
         offset="0"
         style="stop-color:#cfcfcc;stop-opacity:1" />
      <stop
         id="stop1532"
         offset="1"
         style="stop-color:#f6f5f4;stop-opacity:1" />
    </linearGradient>
    <linearGradient
       gradientTransform="translate(-6,-1)"
       xlink:href="#linearGradient1510"
       id="linearGradient1512"
       x1="66"
       y1="246"
       x2="66"
       y2="250"
       gradientUnits="userSpaceOnUse" />
    <linearGradient
       id="linearGradient1510">
      <stop
         style="stop-color:#deddda;stop-opacity:1"
         offset="0"
         id="stop1506" />
      <stop
         style="stop-color:#f6f5f4;stop-opacity:1"
         offset="1"
         id="stop1508" />
    </linearGradient>
    <linearGradient
       gradientTransform="translate(-6,-173)"
       xlink:href="#linearGradient1502"
       id="linearGradient1504-9"
       x1="14.000004"
       y1="239"
       x2="126"
       y2="239"
       gradientUnits="userSpaceOnUse" />
    <radialGradient
       xlink:href="#linearGradient1678"
       id="radialGradient1680"
       cx="64"
       cy="59.733337"
       fx="64"
       fy="59.733337"
       r="32"
       gradientTransform="matrix(1,0,0,1.25,0,-34.66667)"
       gradientUnits="userSpaceOnUse" />
    <linearGradient
       xlink:href="#linearGradient1804"
       id="linearGradient1806"
       x1="64"
       y1="276"
       x2="64"
       y2="220"
       gradientUnits="userSpaceOnUse" />
    <linearGradient
       xlink:href="#linearGradient1814"
       id="linearGradient1816"
       x1="24"
       y1="272"
       x2="104"
       y2="272"
       gradientUnits="userSpaceOnUse" />
    <linearGradient
       id="a"
       x1="2"
       x2="30"
       y1="27"
       y2="27"
       gradientTransform="translate(0,-1)"
       gradientUnits="userSpaceOnUse">
      <stop
         stop-color="#5e5c64"
         offset="0"
         id="stop887" />
      <stop
         stop-color="#9a9996"
         offset=".035714"
         id="stop889" />
      <stop
         stop-color="#5e5c64"
         offset=".071429"
         id="stop891" />
      <stop
         stop-color="#5e5c64"
         offset=".92857"
         id="stop893" />
      <stop
         stop-color="#9a9996"
         offset=".96429"
         id="stop895" />
      <stop
         stop-color="#5e5c64"
         offset="1"
         id="stop897" />
    </linearGradient>
    <radialGradient
       id="d"
       cx="16"
       cy="20.5"
       r="13"
       gradientTransform="matrix(1,0,0,0.73077,0,5.5192)"
       gradientUnits="userSpaceOnUse">
      <stop
         stop-color="#0bbaf4"
         offset="0"
         id="stop1202" />
      <stop
         stop-color="#0aa8dc"
         offset="1"
         id="stop1204" />
    </radialGradient>
    <linearGradient
       id="c"
       x1="15"
       x2="15"
       y1="17"
       y2="2"
       gradientUnits="userSpaceOnUse">
      <stop
         stop-color="#dbc2ae"
         offset="0"
         id="stop1207" />
      <stop
         stop-color="#cdab8f"
         offset="1"
         id="stop1209" />
    </linearGradient>
  </defs>
  <metadata
     id="metadata4">
    <rdf:RDF>
      <cc:Work
         rdf:about="">
        <dc:format>image/svg+xml</dc:format>
        <dc:type
           rdf:resource="http://purl.org/dc/dcmitype/StillImage" />
        <dc:creator>
          <cc:Agent>
            <dc:title>GNOME Design Team</dc:title>
          </cc:Agent>
        </dc:creator>
        <dc:source />
        <cc:license
           rdf:resource="http://creativecommons.org/licenses/by-sa/4.0/" />
        <dc:title>Adwaita Icon Template</dc:title>
        <dc:subject>
          <rdf:Bag />
        </dc:subject>
        <dc:date />
        <dc:rights>
          <cc:Agent>
            <dc:title />
          </cc:Agent>
        </dc:rights>
        <dc:publisher>
          <cc:Agent>
            <dc:title />
          </cc:Agent>
        </dc:publisher>
        <dc:identifier />
        <dc:relation />
        <dc:language />
        <dc:coverage />
        <dc:description />
        <dc:contributor>
          <cc:Agent>
            <dc:title />
          </cc:Agent>
        </dc:contributor>
      </cc:Work>
      <cc:License
         rdf:about="http://creativecommons.org/licenses/by-sa/4.0/">
        <cc:permits
           rdf:resource="http://creativecommons.org/ns#Reproduction" />
        <cc:permits
           rdf:resource="http://creativecommons.org/ns#Distribution" />
        <cc:requires
           rdf:resource="http://creativecommons.org/ns#Notice" />
        <cc:requires
           rdf:resource="http://creativecommons.org/ns#Attribution" />
        <cc:permits
           rdf:resource="http://creativecommons.org/ns#DerivativeWorks" />
        <cc:requires
           rdf:resource="http://creativecommons.org/ns#ShareAlike" />
      </cc:License>
    </rdf:RDF>
  </metadata>
  <path
     id="path1234"
     d="m 32,92 c -2.216,0 -4,1.98222 -4,4.4444 v 11.1112 C 28,110.0178 29.784,112 32,112 h 64 c 2.216,0 4,-1.98222 4,-4.4444 V 96.4444 C 100,93.9822 98.216,92 96,92 Z"
     style="fill:#5e5c64;stroke-width:2" />
  <path
     id="path1236"
     d="m 32,88 c -2.216,0 -4,1.98222 -4,4.4444 v 11.1112 C 28,106.0178 29.784,108 32,108 h 64 c 2.216,0 4,-1.98222 4,-4.4444 V 92.4444 C 100,89.9822 98.216,88 96,88 Z"
     style="fill:#9a9996;stroke-width:2" />
  <path
     id="path1238"
     d="m 12,16 c -2.216,0 -4,1.82974 -4,4.1026 v 71.794 c 0,2.2728 1.784,4.1026 4,4.1026 h 104 c 2.216,0 4,-1.82974 4,-4.1026 V 20.1026 C 120,17.8298 118.216,16 116,16 Z"
     style="fill:#5e5c64;stroke-width:2" />
  <path
     id="path1240"
     d="m 12,12 c -2.216,0 -4,1.784 -4,4 v 72 c 0,2.216 1.784,4 4,4 h 104 c 2.216,0 4,-1.784 4,-4 V 16 c 0,-2.216 -1.784,-4 -4,-4 z"
     style="fill:#9a9996;stroke-width:2" />
  <rect
     id="rect1242"
     ry="0"
     height="72"
     width="104"
     y="16"
     x="12"
     style="fill:#3d3846;stroke-width:2" />
  <rect
     id="rect1244"
     ry="0"
     height="64"
     width="96"
     y="20"
     x="16"
     style="fill:#3584e4;stroke-width:2" />
  <rect
     ry="0"
     y="36"
     x="44"
     height="32"
     width="40"
     id="rect1285"
     style="opacity:1;fill:#241f31;fill-opacity:1;stroke:none;stroke-width:1;stroke-linecap:butt;stroke-linejoin:round;stroke-miterlimit:4;stroke-dasharray:none;stroke-opacity:1" />
  <rect
     y="44"
     x="52"
     height="4"
     width="24"
     id="rect1287"
     style="opacity:1;fill:#f6f5f4;fill-opacity:1;stroke:none;stroke-width:1;stroke-linecap:butt;stroke-linejoin:round;stroke-miterlimit:4;stroke-dasharray:none;stroke-opacity:1" />
  <rect
     y="60"
     x="68"
     height="4"
     width="8"
     id="rect1291"
     style="opacity:1;fill:#33d17a;fill-opacity:1;stroke:none;stroke-width:1;stroke-linecap:butt;stroke-linejoin:round;stroke-miterlimit:4;stroke-dasharray:none;stroke-opacity:1" />
  <rect
     y="60"
     x="52"
     height="4"
     width="4"
     id="rect1300"
     style="opacity:1;fill:#e01b24;fill-opacity:1;stroke:none;stroke-width:1;stroke-linecap:butt;stroke-linejoin:round;stroke-miterlimit:4;stroke-dasharray:none;stroke-opacity:1" />
  <path
     id="path1246"
     d="M 16,20 H 88 L 72,84 H 16 Z"
     style="opacity:0.2;fill:#ffffff;stroke-width:2" />
  <rect
     y="52"
     x="52"
     height="4"
     width="24"
     id="rect1289"
     style="opacity:1;fill:#ffffff;fill-opacity:1;stroke:none;stroke-width:1;stroke-linecap:butt;stroke-linejoin:round;stroke-miterlimit:4;stroke-dasharray:none;stroke-opacity:1" />
</svg>
